icons/terminal.svg

<svg xmlns="http://www.w3.org/2000/svg" width="96" height="96"><path d="M13.2 26.8c-.8-.7-1.2-1.7-1.2-2.8 0-1.1.4-2.1 1.2-2.8.7-.8 1.7-1.2 2.8-1.2 1.1 0 2.1.4 2.8 1.2L42 44.3q1.5 2.142 1.5 3.7 0 1.558-1.5 3.7L18.8 74.8c-.7.8-1.7 1.2-2.8 1.2-1.1 0-2.1-.4-2.8-1.2-.8-.7-1.2-1.7-1.2-2.8 0-1.1.4-2.1 1.2-2.8L34.3 48 13.2 26.8zM48 76c-1.1 0-2.1-.4-2.8-1.2-.8-.7-1.2-1.7-1.2-2.8 0-1.1.4-2.1 1.2-2.8.7-.8 1.7-1.2 2.8-1.2h32c1.1 0 2.1.4 2.8 1.2.8.7 1.2 1.7 1.2 2.8 0 1.1-.4 2.1-1.2 2.8-.7.8-1.7 1.2-2.8 1.2H48z" fill-rule="evenodd" fill="#454545"/></svg>

<?xml version="1.0" standalone="no"?><!-- Generator: Gravit.io --><svg xmlns="http://www.w3.org/2000/svg" xmlns:xlink="http://www.w3.org/1999/xlink" width="96" height="96"><path d=" M 13.2 26.8 C 12.4 26.1 12 25.1 12 24 C 12 22.9 12.4 21.9 13.2 21.2 C 13.9 20.4 14.9 20 16 20 C 17.1 20 18.1 20.4 18.8 21.2 L 42 44.3 Q 43.5 46.44187828064289 43.5 48 Q 43.5 49.55812171935711 42 51.7 L 18.8 74.8 C 18.1 75.6 17.1 76 16 76 C 14.9 76 13.9 75.6 13.2 74.8 C 12.4 74.1 12 73.1 12 72 C 12 70.9 12.4 69.9 13.2 69.2 L 34.3 48 L 13.2 26.8 Z  M 48 76 C 46.9 76 45.9 75.6 45.2 74.8 C 44.4 74.1 44 73.1 44 72 C 44 70.9 44.4 69.9 45.2 69.2 C 45.9 68.4 46.9 68 48 68 L 80 68 C 81.1 68 82.1 68.4 82.8 69.2 C 83.6 69.9 84 70.9 84 72 C 84 73.1 83.6 74.1 82.8 74.8 C 82.1 75.6 81.1 76 80 76 L 48 76 Z " fill-rule="evenodd" fill="#454545" stroke="none"/><mask id="_mask_0TczVFNzunwRLo0vQ0NflvuU5gl50ioe"><path d=" M 13.2 26.8 C 12.4 26.1 12 25.1 12 24 C 12 22.9 12.4 21.9 13.2 21.2 C 13.9 20.4 14.9 20 16 20 C 17.1 20 18.1 20.4 18.8 21.2 L 42 44.3 Q 43.5 46.44187828064289 43.5 48 Q 43.5 49.55812171935711 42 51.7 L 18.8 74.8 C 18.1 75.6 17.1 76 16 76 C 14.9 76 13.9 75.6 13.2 74.8 C 12.4 74.1 12 73.1 12 72 C 12 70.9 12.4 69.9 13.2 69.2 L 34.3 48 L 13.2 26.8 Z  M 48 76 C 46.9 76 45.9 75.6 45.2 74.8 C 44.4 74.1 44 73.1 44 72 C 44 70.9 44.4 69.9 45.2 69.2 C 45.9 68.4 46.9 68 48 68 L 80 68 C 81.1 68 82.1 68.4 82.8 69.2 C 83.6 69.9 84 70.9 84 72 C 84 73.1 83.6 74.1 82.8 74.8 C 82.1 75.6 81.1 76 80 76 L 48 76 Z " fill-rule="evenodd" fill="white" stroke="none"/></mask><path d=" M 13.2 26.8 C 12.4 26.1 12 25.1 12 24 C 12 22.9 12.4 21.9 13.2 21.2 C 13.9 20.4 14.9 20 16 20 C 17.1 20 18.1 20.4 18.8 21.2 L 42 44.3 Q 43.5 46.44187828064289 43.5 48 Q 43.5 49.55812171935711 42 51.7 L 18.8 74.8 C 18.1 75.6 17.1 76 16 76 C 14.9 76 13.9 75.6 13.2 74.8 C 12.4 74.1 12 73.1 12 72 C 12 70.9 12.4 69.9 13.2 69.2 L 34.3 48 L 13.2 26.8 Z  M 48 76 C 46.9 76 45.9 75.6 45.2 74.8 C 44.4 74.1 44 73.1 44 72 C 44 70.9 44.4 69.9 45.2 69.2 C 45.9 68.4 46.9 68 48 68 L 80 68 C 81.1 68 82.1 68.4 82.8 69.2 C 83.6 69.9 84 70.9 84 72 C 84 73.1 83.6 74.1 82.8 74.8 C 82.1 75.6 81.1 76 80 76 L 48 76 Z " fill-rule="evenodd" fill="none" stroke="none" stroke-width="16" mask="url(#_mask_0TczVFNzunwRLo0vQ0NflvuU5gl50ioe)"/></svg>
